images/itchio.svg

<?xml version="1.0" encoding="UTF-8" standalone="no"?>
<!-- Uploaded to: SVG Repo, www.svgrepo.com, Transformed by: SVG Repo Mixer Tools -->

<svg
   fill="#ffffff"
   width="512"
   height="512"
   viewBox="0 0 20.48 20.48"
   stroke="#ffffff"
   version="1.1"
   id="svg7"
   sodipodi:docname="itchio.svg"
   inkscape:version="1.1.1 (3bf5ae0d25, 2021-09-20)"
   xmlns:inkscape="http://www.inkscape.org/namespaces/inkscape"
   xmlns:sodipodi="http://sodipodi.sourceforge.net/DTD/sodipodi-0.dtd"
   xmlns="http://www.w3.org/2000/svg"
   xmlns:svg="http://www.w3.org/2000/svg">
  <defs
     id="defs11" />
  <sodipodi:namedview
     id="namedview9"
     pagecolor="#ffffff"
     bordercolor="#666666"
     borderopacity="1.0"
     inkscape:pageshadow="2"
     inkscape:pageopacity="0.0"
     inkscape:pagecheckerboard="0"
     showgrid="false"
     inkscape:zoom="1.04"
     inkscape:cx="399.51923"
     inkscape:cy="168.75"
     inkscape:window-width="1920"
     inkscape:window-height="1017"
     inkscape:window-x="-8"
     inkscape:window-y="-8"
     inkscape:window-maximized="1"
     inkscape:current-layer="svg7" />
  <g
     id="SVGRepo_bgCarrier"
     stroke-width="0" />
  <g
     id="SVGRepo_tracerCarrier"
     stroke-linecap="round"
     stroke-linejoin="round" />
  <g
     id="SVGRepo_iconCarrier">
    <path
       d="m 16,5 c -3.252,0 -7.6878906,0.050859 -8.5878906,0.1308594 -1.01,0.606 -3.0092969,2.9000937 -3.0292969,3.4960937 v 1 C 4.3828125,10.889953 5.5657188,12 6.6367188,12 7.9197187,12 8.9902344,10.929969 8.9902344,9.6679688 8.9902344,10.929969 10.0305,12 11.3125,12 12.6055,12 13.605469,10.930969 13.605469,9.6679688 13.605469,10.929969 14.695281,12 15.988281,12 h 0.02148 c 1.293,0 2.382812,-1.069031 2.382812,-2.3320312 0,1.2620002 1.009969,2.3320312 2.292969,2.3320312 1.283,0 2.324219,-1.069031 2.324219,-2.3320312 0,1.2620002 1.070515,2.3320312 2.353515,2.3320312 1.071,0 2.251953,-1.110047 2.251953,-2.3730469 v -1 c -0.02,-0.596 -2.019296,-2.8900937 -3.029296,-3.4960937 C 21.443938,5.0198594 19.252,5 16,5 Z m -2.449219,6.742188 c -1.053,1.81 -3.6984685,1.831718 -4.7304685,0.01172 -0.63,1.092 -2.0560156,1.513641 -2.6660156,1.306641 -0.178,1.899 -0.3008125,11.648203 0.9921875,13.283203 3.7969996,0.885 14.0180316,0.866 17.7070316,0 1.495,-1.524 1.160187,-11.522203 0.992187,-13.283203 -0.61,0.207 -2.03625,-0.214641 -2.65625,-1.306641 -1.043,1.82 -3.688234,1.798282 -4.740234,-0.01172 -0.325,0.589999 -1.082219,1.367187 -2.449219,1.367187 -1.003,0.039 -1.948219,-0.502188 -2.449219,-1.367187 z M 11.419922,14 c 0.8,0 1.530156,4.69e-4 2.410156,0.980469 1.45,-0.15 2.889844,-0.15 4.339844,0 0.89,-0.97 1.610156,-0.970703 2.410156,-0.970703 2.58,0 3.200859,3.809843 4.13086,7.089843 0.84,3.05 -0.281876,3.13086 -1.671876,3.13086 -2.07,-0.08 -3.218749,-1.579844 -3.21875,-3.089844 -1.929999,0.32 -5.010624,0.44 -7.640624,0 0,1.51 -1.14875,3.009844 -3.2187505,3.089844 -1.39,0 -2.511875,-0.08086 -1.671875,-3.13086 0.93,-3.3 1.5508594,-7.089843 4.1308595,-7.089843 z M 16,16.876953 c 0,0 -1.694,1.562422 -2,2.107422 l 1.107422,-0.04102 v 0.966797 c 0,0.058 0.818578,0.0078 0.892578,0.0078 0.447,0.017 0.892578,0.03319 0.892578,-0.0078 V 18.943359 L 18,18.984375 c -0.306,-0.546 -2,-2.107422 -2,-2.107422 z"
       id="path4" />
  </g>
</svg>

<!DOCTYPE svg PUBLIC "-//W3C//DTD SVG 1.1//EN" "http://www.w3.org/Graphics/SVG/1.1/DTD/svg11.dtd">
<!-- Uploaded to: SVG Repo, www.svgrepo.com, Transformed by: SVG Repo Mixer Tools -->
<svg fill="#ffffff" width="800px" height="800px" viewBox="0 0 32 32" xmlns="http://www.w3.org/2000/svg" stroke="#ffffff">
<g id="SVGRepo_bgCarrier" stroke-width="0"/>
<g id="SVGRepo_tracerCarrier" stroke-linecap="round" stroke-linejoin="round"/>
<g id="SVGRepo_iconCarrier">
<path d="M 16 5 C 12.748 5 8.3121094 5.0508594 7.4121094 5.1308594 C 6.4021094 5.7368594 4.4028125 8.0309531 4.3828125 8.6269531 L 4.3828125 9.6269531 C 4.3828125 10.889953 5.5657188 12 6.6367188 12 C 7.9197187 12 8.9902344 10.929969 8.9902344 9.6679688 C 8.9902344 10.929969 10.0305 12 11.3125 12 C 12.6055 12 13.605469 10.930969 13.605469 9.6679688 C 13.605469 10.929969 14.695281 12 15.988281 12 L 16.009766 12 C 17.302766 12 18.392578 10.930969 18.392578 9.6679688 C 18.392578 10.929969 19.402547 12 20.685547 12 C 21.968547 12 23.009766 10.930969 23.009766 9.6679688 C 23.009766 10.929969 24.080281 12 25.363281 12 C 26.434281 12 27.615234 10.889953 27.615234 9.6269531 L 27.615234 8.6269531 C 27.595234 8.0309531 25.595938 5.7368594 24.585938 5.1308594 C 21.443938 5.0198594 19.252 5 16 5 z M 13.550781 11.742188 C 12.497781 13.552188 9.8523125 13.573906 8.8203125 11.753906 C 8.1903125 12.845906 6.7642969 13.267547 6.1542969 13.060547 C 5.9762969 14.959547 5.8534844 24.70875 7.1464844 26.34375 C 10.943484 27.22875 21.164516 27.20975 24.853516 26.34375 C 26.348516 24.81975 26.013703 14.821547 25.845703 13.060547 C 25.235703 13.267547 23.809453 12.845906 23.189453 11.753906 C 22.146453 13.573906 19.501219 13.552188 18.449219 11.742188 C 18.124219 12.332187 17.367 13.109375 16 13.109375 C 14.997 13.148375 14.051781 12.607187 13.550781 11.742188 z M 11.419922 14 C 12.219922 14 12.950078 14.000469 13.830078 14.980469 C 15.280078 14.830469 16.719922 14.830469 18.169922 14.980469 C 19.059922 14.010469 19.780078 14.009766 20.580078 14.009766 C 23.160078 14.009766 23.780937 17.819609 24.710938 21.099609 C 25.550938 24.149609 24.429062 24.230469 23.039062 24.230469 C 20.969062 24.150469 19.820313 22.650625 19.820312 21.140625 C 17.890313 21.460625 14.809688 21.580625 12.179688 21.140625 C 12.179688 22.650625 11.030938 24.150469 8.9609375 24.230469 C 7.5709375 24.230469 6.4490625 24.149609 7.2890625 21.099609 C 8.2190625 17.799609 8.8399219 14.009766 11.419922 14.009766 L 11.419922 14 z M 16 16.876953 C 16 16.876953 14.306 18.439375 14 18.984375 L 15.107422 18.943359 L 15.107422 19.910156 C 15.107422 19.968156 15.926 19.917969 16 19.917969 C 16.447 19.934969 16.892578 19.951156 16.892578 19.910156 L 16.892578 18.943359 L 18 18.984375 C 17.694 18.438375 16 16.876953 16 16.876953 z"/>
</g>
</svg>
